X:15
T:Wohlfahrt 15 Op 45 No 14
C:Franz Wohlfahrt / K.H. Aiquoni
L:1/8
Q:1/4=110
M:4/4
I:linebreak $
K:D
"^15""D" D2 fd AFDF | A2 dA FDA,D |"A7" C2 ge cAEA | c2 ec AEFG |"D" F2 fd Adfa |$"G" b2 gd Bdgb | 
"D" a2 fd Adfa |"G" b2 gd Bdgb |"D" a2 ^ga bafd |"A7" c2 EF AGFE |$"D" F2 fa bafd | 
"A7" c2 EF AGFE |"D" F2 DF"D7" A=ced |"G" B2 E^G"E7" Bdfe |"A" ^c2 F^A"F#7" cegf |$ 
"D" d2 Ac"A7" egba |"D" f2 A,D FAdf |"A7" g2 A,C EGce |"D" f2 A,D FAdf |"A7" g2 A,C EGce |$ 
"D" f2 DF Adfa |"G" g2 DG Bdgb |"Bm" a2 DF"A7" Adfa |"A7" g2 Ac egfe |"D" d2 af dAFA |$ 
"D" d2 fd AFDF |"D" A2 A,D FAdf |"A7" a2 ge cAGE |"D" D4 A,DFA |"D" d4 A,DFA |"D" d2 z2 [DAf]2 z2 | 
[Dd]6 z2 |] 



